src/actions/symbolic/go-bottom-symbolic.svg

<?xml version="1.0" encoding="UTF-8" standalone="no"?>
<svg
   xmlns:dc="http://purl.org/dc/elements/1.1/"
   xmlns:cc="http://creativecommons.org/ns#"
   xmlns:rdf="http://www.w3.org/1999/02/22-rdf-syntax-ns#"
   xmlns:svg="http://www.w3.org/2000/svg"
   xmlns="http://www.w3.org/2000/svg"
   xmlns:sodipodi="http://sodipodi.sourceforge.net/DTD/sodipodi-0.dtd"
   xmlns:inkscape="http://www.inkscape.org/namespaces/inkscape"
   viewBox="0 0 16 16"
   id="svg2"
   version="1.1"
   inkscape:version="0.91 r13725"
   sodipodi:docname="go-bottom-symbolic.svg">
  <metadata
     id="metadata10">
    <rdf:RDF>
      <cc:Work
         rdf:about="">
        <dc:format>image/svg+xml</dc:format>
        <dc:type
           rdf:resource="http://purl.org/dc/dcmitype/StillImage" />
      </cc:Work>
    </rdf:RDF>
  </metadata>
  <sodipodi:namedview
     pagecolor="#ffffff"
     bordercolor="#666666"
     borderopacity="1"
     objecttolerance="10"
     gridtolerance="10"
     guidetolerance="10"
     inkscape:pageopacity="0"
     inkscape:pageshadow="2"
     inkscape:window-width="640"
     inkscape:window-height="480"
     id="namedview8"
     showgrid="false"
     inkscape:zoom="39.8125"
     inkscape:cx="3.5290424"
     inkscape:cy="8"
     inkscape:current-layer="svg2" />
  <defs
     id="defs3051">
    <style
       type="text/css"
       id="current-color-scheme">
      .ColorScheme-Text {
        color:#666666;
      }
      </style>
  </defs>
  <path
     style="color:#666666;fill:currentColor;fill-opacity:1;stroke:none"
     class="ColorScheme-Text"
     d="m 14.015519,2.2490725 c -0.250896,9.066e-4 -0.501921,0.09731 -0.692688,0.2893796 L 8.0160203,7.8839981 2.6704743,2.5771879 C 2.2863606,2.1958077 1.6664821,2.1976046 1.2850983,2.5817451 0.90337618,2.9658623 0.90505188,3.5878653 1.2896556,3.9693996 l 6.0405123,5.9972195 c 0.1920745,0.1906579 0.4440357,0.2857299 0.6949667,0.2848219 0.2508026,-9.06e-4 0.5018969,-0.09731 0.6926879,-0.289379 L 14.715042,3.9192709 C 15.096577,3.5349682 15.094902,2.9152753 14.710485,2.533895 14.518399,2.3432054 14.266415,2.2481651 14.015519,2.2490725 Z M 8.0000702,11.500103 A 1.7499485,1.7499485 0 0 0 6.2501216,13.250051 1.7499485,1.7499485 0 0 0 8.0000702,15 1.7499485,1.7499485 0 0 0 9.7500186,13.250051 1.7499485,1.7499485 0 0 0 8.0000702,11.500103 Z"
     id="path6"
     inkscape:connector-curvature="0" />
</svg>

<svg version="1.1" viewBox="0 0 16 16" xmlns="http://www.w3.org/2000/svg">
 <defs>
  <style id="current-color-scheme" type="text/css">.ColorScheme-Text {
        color:#666666;
      }</style>
 </defs>
 <path class="ColorScheme-Text" d="m14.016 2.2491c-0.2509 9.066e-4 -0.50192 0.09731-0.69269 0.28938l-5.3068 5.3455-5.3455-5.3068c-0.38411-0.38138-1.004-0.37958-1.3854 0.0045572-0.38172 0.38412-0.38005 1.0061 0.0045573 1.3877l6.0405 5.9972c0.19207 0.19066 0.44404 0.28573 0.69497 0.28482 0.2508-9.06e-4 0.5019-0.09731 0.69269-0.28938l5.9972-6.0428c0.38154-0.3843 0.37986-1.004-0.004557-1.3854-0.19209-0.19069-0.44407-0.28573-0.69497-0.28482zm-6.0154 9.251a1.7499 1.7499 0 0 0-1.7499 1.7499 1.7499 1.7499 0 0 0 1.7499 1.7499 1.7499 1.7499 0 0 0 1.7499-1.7499 1.7499 1.7499 0 0 0-1.7499-1.7499z" color="#666666" fill="currentColor"/>
</svg>
